X: 1303
T: Cahill's Courtship
R:Reel
N:Collected by Cahill
B:O'Neill's 1303
Z:Transcribed by Trish O'Neil
M:C|
L:1/8
K:D
A,2|D2(FD) EDB,A,|D2(FD) dBAF|D2(FD) EDB,B|AGFE DGFE|
D2(FD) EDB,A,|D2(FD) dBAF|D2(FD) EDB,B|AGFE "H"D2||
(3ABc|dAFA BAFA|dAFD EDB,A,|dAFA BAFB|AGFED2(3ABc|
dAFA BAFA|dAFD EDB,A,|DEFG AdcB|AGFE DGFE|]


